packages/clay-css/src/images/icons/import-list.svg

<!--
* SPDX-FileCopyrightText: © 2020 Liferay, Inc. <https://liferay.com>
* SPDX-FileCopyrightText: © 2020 Contributors to the project Clay <https://github.com/liferay/clay/graphs/contributors>
*
* SPDX-License-Identifier: BSD-3-Clause
-->
<svg xmlns="http://www.w3.org/2000/svg" viewBox="0 0 512 512">
	<path class="lexicon-icon-outline lx-import-list-bar" d="M448 256.002V448.002H64V256.002C64 213.602 0 214.602 0 256.002V448.002C0 483.302 28.7 512.002 64 512.002H448C483.3 512.002 512 483.302 512 448.002V256.002C512 213.302 448 213.802 448 256.002ZM352 64H160C116.5 64 117 0 160 0H352C395 0 395.5 64 352 64Z" />
	<path class="lexicon-icon-outline lx-import-list-arrow-down" d="M352.001 96H160.001C118.001 96 117.001 160 160.001 160H224.201L224.301 281.4L207.701 264.8C180.401 241 142.501 282.8 169.101 309.6L233.401 374.8C239.501 380.9 258.901 392 278.901 374.8L343.201 309.6C370.301 280.2 329.101 242.4 304.601 264.8L288.001 281.4L287.801 160H352.001C394.501 160 394.501 96 352.001 96Z" />
</svg>

<!--
* SPDX-FileCopyrightText: © 2020 Liferay, Inc. <https://liferay.com>
* SPDX-FileCopyrightText: © 2020 Contributors to the project Clay <https://github.com/liferay/clay/graphs/contributors>
*
* SPDX-License-Identifier: BSD-3-Clause
-->
<svg xmlns="http://www.w3.org/2000/svg" viewBox="0 0 512 512">
	<path class="lexicon-icon-outline lx-import-list-border-bottom" d="M448,160v288H64V160c0-42.4-64-41.4-64,0v288c0,35.3,28.7,64,64,64h384c35.3,0,64-28.7,64-64V160C512,117.3,448,117.8,448,160z"/>
	<path class="lexicon-icon-outline lx-import-list-bar" d="M352,64H160c-43.5,0-43-64,0-64l192,0C395,0,395.5,64,352,64z"/>
	<path class="lexicon-icon-outline lx-import-list-arrow-down" d="M352,96H160c-42,0-43,64,0,64h64.2l0.1,121.4l-16.6-16.6c-27.3-23.8-65.2,18-38.6,44.8l64.3,65.2c6.1,6.1,25.5,17.2,45.5,0l64.3-65.2c27.1-29.4-14.1-67.2-38.6-44.8l-16.6,16.6L287.8,160H352C394.5,160,394.5,96,352,96z"/>
</svg>
